X:1
T:Ey Simmer dan Botz
T:Valentin Haussmann
T:Source : Tricinia---Johann-Jacob Gastoldi und anderer Autorn---Nürnberg---P.Kauffmann---1607. Editor : André Vierendeels (27/03/17).
T:Notes : Original clefs : G2, C1, C3 Text Middle German by Valentin Hauszmann
T:Ey Simmer dan Botz
T:©
T:©
T:©
C:Valentin Haussmann
Z:©
%%score [ 1 2 3 ]
L:1/8
Q:1/4=100
M:4/4
K:C
V:1 treble nm="Soprano 1" snm="S 1"
V:2 treble nm="Soprano 2" snm="S 2"
V:3 treble-8 nm="Tenor" snm="T"
V:1
 d2 ef g2 e2 | d4 c4 | z2 c2 c2 c2 | c2 BA B2 c2 | d4 z2 A2 | B2 c2 d2 B2 | A4 B2 g2 | %7
w: Ey Sim- mer dan Botz|Vel- ten,|wie ist das|Gelt _ _ _ so|theur, und|kompt so wun- der|sel- ten, an|
w: Ey Sim- mer dan Botz|fle- chte,|wie ist umbs|Gelt _ _ _ ge-|than es|macht den hertzn zum|Kne- chte, ihr|
 e2 e2 f2 e2- | ed d4 ^c2 | d4 z2 ^F2 |: G2 d2 e2 d2 | c4 B4 | z2 d2 e2 d2 | c2 B2 A4 | %14
w: ar- me Leu- *|* * * te|heur, es|ha- bens nur die|Rei- chen,|hal- tens für|ih- ren Gott,|
w: darffs nicht grei- *|* * * ffen|an. das|thut der Geitz al-|lei- ne,|der kein mal|har ge- nug,|
 z2 d2 e2 f2 | e2 d2 c4 | B2 e2 d2 c2 | d4 c2 B2- | B2 AG A2 A2 |1 B4 z2 ^F2 :|2 defd ef g2- || %21
w: von ih- nen|wils nicht wei-|chen, ist disz nicht|all _ _|_ _ _ _ der|Todt, es|all _ _ _ _ _ _|
w: den Kar- gen|filtz ich mei-|ne, er ist sein|Gelt _ _|_ _ _ _ zu|klug, *|Gelt _ _ _ _ _ _|
 g2 ^fe f2 f2 | g8 |] %23
w: _ _ _ _ der|Todt.|
w: _ _ _ _ zu|klug.|
V:2
 B2 cA G2 c2- | c2 B2 c2 A2 | A2 A2 A2 G^F | G6 G2 | ^F2 F2 G2 A2 | G4 ^F2 G2- | G2 ^F2 G4 | %7
w: Ey Sim- mer dan Botz-|* Vel- ten, wie|ist das Gelt _ _|_ so|theur, und kompt so|wun- der sel-|* * ten,|
w: Ey Sim- mer da Botz|_ De- gen, wie|geht es inn der _|Welt, dasz|sich die Leut so|le- gen, so|_ le- gen,|
 z2 G2 A3 G | F2 ED E3 E | ^F2 d2 e2 d2 |: c2 B2 AG G2- | G2 ^F2 G2 B2 | c2 B2 c2 FG | A2 G2 ^F4 | %14
w: an ar- me|Leu- * * * te|heur, es ha- bens|nur die Rei- * *|* * chen, hal-|tens für ih- * *|* ren Gott,|
w: auff das ver-|flu- * * * te|Gelt, und wenn sie|es er- wer- * *|* * ben, ist|disz ihr re- * *|* chter lohn,|
 z2 ^F2 G2 A2 | G2 B2 A4 | ^G4 z2 c2 | B2 A2 G4- | G2 ^FE F2 F2 |1 G2 d2 e2 d2 :|2 B2 A2 GABG || %21
w: von ih- nen|wils nicht wei-|chen, ist|disz nicht all|_ _ _ _ der|Todt, es ha- bens|dis nicht all- * * *|
w: sie fal- len|nidr und ster-|ben, das|ha- ben sie|_ _ _ _ da-|von, und wenn sie|ha- ben sie _ _ _|
 A4 A4 | B8 |] %23
w: * der|Todt.|
w: _ da-|von.|
V:3
 G2 cd e2 c2 | g4 c2 f2 | f2 f2 f2 ed | e6 e2 | d2 d2 e2 f2 | g2 e2 d4- | d4 G4 | z2 c2 A2 A2 | %8
w: Ey Sim- mer dan Botz|Vel- ten, wie|ist das Geld _ _|_ so|theur, und kompt so|wun- der sel-|* ten,|an ar- me|
w: Ey Sim- mer dan Botz|Gr- ren, was|frag ich dann dar- *|nach, das|Gelt soll mich nicht|b'schwe- * *|* ren,|will ha- ben|
 _B4 A4 | d4 z2 d2 |: e2 d2 c2 B2 | A4 G2 g2 | a2 g2 c2 de | f2 g2 d4 | z2 d2 c2 A2 | c2 G2 A4 | %16
w: Leu- te|heur, es|ha- bens die Rei-|* chen, hal-|tens für ih- * *|* ren Gott,|von ih- nen|wils nicht wei-|
w: gut ge-|mach, wenn|ich wolt vil er-|spa- ren, ich|mach- te nur _ _|_ ein zanck,|vil- leicht nach|mei- nem Ja-|
 E4 z2 A2 | G2 F2 E4 | D8 |1 G4 z2 d2 :|2 G2 F2 E4 || D8 | G8 |] %23
w: chen, ist|disz nicht all|der|Todt, es|disz nicht all|der|Todt?|
w: ren, wüszt|mirs doch dei-|ner|danck, wenn|mirs doch dei-|ner|danck.|

